X: 312
T: Anchors Aweigh
R: Jig
M: 6/8
L: 1/8
K: Am
a|"Am"ae2e2a|ae2e2e|cAA "Dm"dAA|"Am"eAA Ace|ae2e2a|
aece2e|"F"cAF "Em"BGE|"Am"A3-A3 :||:A|"Am"eAA eAA|"F"fAA fAA|
"Am"eAA eAA|"Dm"dAA dAA|"Am"eAA "Dm"fAA |"G"gAA "Am"eAA|"F"cAF "G"BGE|"Am"A3-A2:|]

